static/logos/contentful-wordmark-color.svg

<svg width="100" height="21" viewBox="0 0 100 21" fill="none" xmlns="http://www.w3.org/2000/svg">
<g clip-path="url(#clip0_1_3184)">
<path d="M6.15273 14.4279C5.62453 13.8952 5.20669 13.2636 4.92313 12.5694C4.63957 11.8751 4.49585 11.1317 4.50022 10.3818C4.49829 9.63199 4.64599 8.88926 4.93466 8.19714C5.22334 7.50498 5.64721 6.8773 6.18149 6.3508C6.4103 6.14751 6.59525 5.89967 6.72494 5.62251C6.85463 5.34529 6.92633 5.04458 6.93566 4.73874C6.94499 4.43289 6.89175 4.12836 6.77917 3.84379C6.66664 3.55922 6.49716 3.3006 6.28113 3.08376C6.06505 2.86693 5.807 2.69644 5.52273 2.58274C5.23845 2.46904 4.93396 2.41453 4.62787 2.42252C4.32178 2.43052 4.02054 2.50087 3.7426 2.62926C3.46466 2.75765 3.21588 2.94138 3.01146 3.1692C1.09147 5.07657 0.00825148 7.66797 4.69464e-05 10.3734C-0.00815759 13.0788 1.05933 15.6767 2.96772 17.5957C3.17146 17.8232 3.41943 18.0069 3.69651 18.1355C3.9736 18.2641 4.27399 18.335 4.57938 18.3438C4.88477 18.3526 5.18876 18.2992 5.47283 18.1867C5.75685 18.0743 6.01505 17.9053 6.23154 17.6899C6.44809 17.4745 6.6185 17.2174 6.73231 16.934C6.84613 16.6507 6.90108 16.3471 6.89365 16.0419C6.88628 15.7367 6.8168 15.4362 6.68943 15.1587C6.562 14.8812 6.37943 14.6325 6.15273 14.4279Z" fill="#FFD500"/>
<path d="M6.18315 6.35062C7.2599 5.28542 8.71526 4.6903 10.2304 4.69568C11.7454 4.70107 13.1965 5.3065 14.2657 6.37933C14.4687 6.60923 14.7166 6.79521 14.9942 6.92583C15.2718 7.05645 15.5733 7.12892 15.8799 7.13887C16.1866 7.14877 16.492 7.09593 16.7775 6.98351C17.063 6.87109 17.3224 6.70155 17.5399 6.48521C17.7574 6.26892 17.9283 6.01047 18.0421 5.72573C18.1559 5.44098 18.2103 5.13596 18.2018 4.82945C18.1934 4.52294 18.1222 4.2214 17.9928 3.94337C17.8635 3.66534 17.6785 3.4167 17.4494 3.21273C16.5079 2.25978 15.3874 1.50208 14.1521 0.983143C12.9168 0.464208 11.591 0.19426 10.251 0.188805C8.91098 0.183349 7.5831 0.442494 6.34356 0.951354C5.10406 1.46021 3.97735 2.20877 3.02816 3.15402C2.79847 3.35626 2.6125 3.60321 2.48162 3.87976C2.35075 4.15631 2.27772 4.45664 2.267 4.76237C2.25629 5.0681 2.30812 5.37279 2.41932 5.65784C2.53052 5.94284 2.69875 6.20217 2.91372 6.42C3.12868 6.63779 3.38586 6.80949 3.66952 6.92449C3.95317 7.03954 4.25734 7.09552 4.5634 7.08902C4.86945 7.08253 5.17098 7.01372 5.44949 6.88671C5.72799 6.75975 5.97763 6.57732 6.18315 6.35062Z" fill="#5CAAFF"/>
<path d="M14.2498 14.4566C13.717 14.9854 13.085 15.404 12.3901 15.6885C11.6951 15.973 10.9508 16.1176 10.1998 16.1142C9.44904 16.1153 8.70558 15.9667 8.01295 15.6771C7.32032 15.3875 6.69244 14.9629 6.1661 14.4278C5.96264 14.1991 5.71465 14.0143 5.43728 13.8847C5.15991 13.7551 4.85898 13.6835 4.55293 13.6741C4.24687 13.6648 3.94213 13.718 3.65737 13.8305C3.37261 13.943 3.11381 14.1123 2.89683 14.3282C2.67985 14.5441 2.50925 14.802 2.39547 15.0861C2.2817 15.3702 2.22714 15.6745 2.23514 15.9804C2.24315 16.2863 2.31355 16.5873 2.44202 16.865C2.5705 17.1427 2.75436 17.3914 2.98233 17.5957C3.92541 18.5485 5.04739 19.306 6.28398 19.8248C7.52053 20.3436 8.84744 20.6133 10.1885 20.6187C11.5297 20.624 12.8586 20.3648 14.0993 19.8559C15.34 19.347 16.468 18.5985 17.4186 17.6531C17.6286 17.4452 17.7956 17.198 17.91 16.9256C18.0244 16.6532 18.0841 16.3609 18.0855 16.0654C18.0869 15.77 18.03 15.4772 17.9182 15.2037C17.8063 14.9302 17.6417 14.6814 17.4336 14.4715C17.2255 14.2616 16.9781 14.0948 16.7055 13.9804C16.4329 13.866 16.1404 13.8065 15.8448 13.8051C15.5492 13.8037 15.2561 13.8605 14.9825 13.9723C14.7088 14.0841 14.4599 14.2486 14.2498 14.4566Z" fill="#E8505D"/>
<path d="M6.18381 6.3507C5.86845 6.66544 5.46664 6.87956 5.02934 6.9658C4.59204 7.05199 4.13897 7.00652 3.7276 6.83503C3.31622 6.66359 2.96508 6.37384 2.7187 6.00266C2.47233 5.63147 2.34184 5.19549 2.34377 4.75008C2.3457 4.30466 2.47998 3.86985 2.72957 3.5008C2.97915 3.13176 3.33279 2.8451 3.74564 2.6772C4.15849 2.50931 4.61194 2.46773 5.04847 2.55775C5.48499 2.64777 5.88494 2.86533 6.19757 3.18283C6.61401 3.60581 6.84628 4.17618 6.8437 4.76959C6.84118 5.36302 6.60396 5.93132 6.18381 6.3507Z" fill="#3E97FF"/>
<path d="M6.13628 17.5956C5.82082 17.9102 5.41891 18.1242 4.98159 18.2102C4.54426 18.2963 4.09121 18.2506 3.6799 18.079C3.26859 17.9073 2.91756 17.6175 2.67134 17.2462C2.42512 16.8749 2.29479 16.4389 2.2969 15.9934C2.29901 15.548 2.43346 15.1133 2.68318 14.7443C2.93292 14.3754 3.28667 14.0889 3.69959 13.9211C4.1125 13.7534 4.56597 13.712 5.00246 13.8022C5.43896 13.8924 5.83881 14.1101 6.15128 14.4277C6.56762 14.8509 6.79968 15.4213 6.79685 16.0147C6.79406 16.6081 6.55659 17.1764 6.13628 17.5956Z" fill="#CF3D54"/>
<path d="M27.46 12.5852C28.1088 12.0955 28.195 12.3691 28.7425 12.9163C29.0163 13.1898 29.765 13.6657 29.275 14.068C28.2525 14.9024 27.33 15.2771 26.025 15.2771C23.0713 15.2634 20.9825 13.0599 21.15 10.1369C21.2213 8.82775 21.74 7.58857 22.7638 6.73914C23.7 5.94718 24.8663 5.60244 26.0913 5.63115C26.6917 5.6294 27.2865 5.74656 27.8413 5.97594C28.217 6.11151 28.5712 6.30084 28.8925 6.53806C29.5413 7.0377 29.2388 7.33002 28.7338 7.83342C28.6188 7.94837 28.5038 8.0645 28.4025 8.17945C28.1438 8.43801 27.97 8.62538 27.625 8.38053C26.9625 7.9196 26.125 7.67476 25.3338 7.88089C22.7838 8.52795 22.8988 13.0636 26.0263 13.0786C26.5448 13.0718 27.0473 12.8988 27.46 12.5852ZM98.3439 15.3334C98.2413 15.3338 98.1403 15.3141 98.0454 15.2752C97.9506 15.2364 97.865 15.1792 97.7923 15.107C97.7202 15.0347 97.6624 14.9489 97.6238 14.8544C97.5846 14.7599 97.5645 14.6586 97.565 14.5564L97.6088 4.50692C97.6083 4.40469 97.6279 4.30337 97.6671 4.20881C97.7057 4.11425 97.763 4.02832 97.8351 3.95597C97.9078 3.88363 97.9934 3.82629 98.0882 3.78728C98.1825 3.74828 98.2841 3.72836 98.3862 3.7287H99.2228C99.3248 3.72836 99.4264 3.74832 99.5212 3.7874C99.6155 3.82649 99.7016 3.88393 99.7738 3.95641C99.8465 4.02889 99.9037 4.11497 99.9423 4.20968C99.981 4.30438 100.001 4.40583 100 4.50817L99.9563 14.5576C99.9568 14.6598 99.9372 14.761 99.898 14.8555C99.8594 14.95 99.8021 15.0359 99.7295 15.1081C99.6573 15.1804 99.5712 15.2376 99.4769 15.2765C99.3825 15.3153 99.281 15.3351 99.1789 15.3346L98.3439 15.3334ZM93.9686 14.1679C93.0614 15.0173 92.1965 15.4633 90.914 15.4633C88.3212 15.4483 87.0815 13.3035 87.0815 10.8988L87.0965 6.81038C87.0959 6.70821 87.1161 6.60698 87.1547 6.51254C87.1939 6.41811 87.2516 6.33234 87.3238 6.26022C87.396 6.18806 87.482 6.131 87.5769 6.09229C87.6712 6.05357 87.7728 6.03399 87.8748 6.03466H88.7114C88.8135 6.03414 88.915 6.05388 89.0093 6.09275C89.1042 6.13161 89.1898 6.18883 89.2619 6.2611C89.3346 6.33337 89.3918 6.41919 89.4305 6.51368C89.4697 6.60816 89.4892 6.70945 89.4887 6.81161L89.4748 10.9001C89.4748 12.2392 90.1949 13.2897 91.6073 13.2897C93.0202 13.2897 93.8836 12.1093 93.8975 10.7914V9.33115C93.8862 9.27445 93.8815 9.21656 93.8836 9.15878L93.8975 6.84033C93.897 6.73816 93.9166 6.63692 93.9557 6.54244C93.9944 6.4479 94.0516 6.36208 94.1243 6.28981C94.1965 6.21759 94.2825 6.16038 94.3769 6.12151C94.4712 6.08265 94.5728 6.06285 94.6748 6.06337H95.5001C95.6021 6.06285 95.7037 6.08265 95.798 6.12151C95.8929 6.16038 95.9784 6.21759 96.0511 6.28981C96.1233 6.36208 96.1805 6.4479 96.2191 6.54244C96.2583 6.63692 96.2779 6.73816 96.2774 6.84033L96.2501 14.5576C96.248 14.7618 96.165 14.9569 96.0191 15.1C95.8733 15.2431 95.6769 15.3225 95.4727 15.3208H94.766C94.5655 15.3146 94.3748 15.2322 94.2331 15.0904C94.0913 14.9486 94.0088 14.7581 94.0027 14.5576L93.9686 14.1679ZM84.0227 6.06337H85.6362C85.7387 6.06481 85.8398 6.08651 85.9336 6.12718C86.0274 6.16785 86.1124 6.22672 86.1831 6.30033C86.2542 6.37399 86.3099 6.46089 86.347 6.55615C86.3846 6.65141 86.4021 6.75311 86.4001 6.85533V7.38749C86.3985 7.59259 86.3166 7.78893 86.1712 7.93419C86.0264 8.0795 85.8305 8.16218 85.6248 8.16445H84.0073L83.9789 14.5139C83.9795 14.6162 83.9593 14.7174 83.9207 14.812C83.8815 14.9066 83.8243 14.9925 83.7521 15.0649C83.68 15.1372 83.5939 15.1946 83.4996 15.2335C83.4047 15.2725 83.3037 15.2924 83.2011 15.2921H82.366C82.264 15.2924 82.1624 15.2725 82.0681 15.2336C81.9733 15.1946 81.8872 15.1372 81.815 15.0649C81.7423 14.9926 81.6851 14.9067 81.6459 14.8121C81.6073 14.7175 81.5872 14.6162 81.5877 14.5139L81.6161 5.73234C81.6161 3.81739 82.7114 2.30466 84.6712 2.13227C84.7289 2.13227 84.7712 2.11853 84.8289 2.11853C84.9439 2.11104 85.0599 2.11104 85.1748 2.11853H85.9248C86.0274 2.12 86.1279 2.14165 86.2217 2.18224C86.3155 2.22283 86.4006 2.28157 86.4717 2.35506C86.5423 2.42856 86.5985 2.51536 86.6356 2.61047C86.6727 2.70558 86.6908 2.80713 86.6887 2.90925V3.39892C86.6877 3.6047 86.6052 3.8017 86.4599 3.94732C86.314 4.09295 86.1171 4.17551 85.9114 4.17714H85.3063C84.3836 4.17714 83.9949 4.88167 83.98 5.7461L84.0227 6.06337ZM78.2315 6.03466H80.0001C80.2042 6.03662 80.3996 6.11955 80.5429 6.26522C80.6862 6.41089 80.7655 6.60739 80.764 6.81161V7.34373C80.7619 7.54795 80.6789 7.74301 80.5331 7.8861C80.3872 8.02919 80.1908 8.10863 79.9862 8.10698H78.216L78.2026 11.9919C78.2026 12.7414 78.5624 13.1723 79.3114 13.1723H79.6712C79.8758 13.1746 80.0707 13.2578 80.214 13.4037C80.3573 13.5496 80.4367 13.7462 80.4351 13.9505V14.4902C80.4325 14.6942 80.3496 14.8891 80.2037 15.0322C80.0583 15.1752 79.8619 15.2548 79.6573 15.2534H78.98C78.8547 15.2559 78.7295 15.2509 78.6052 15.2384C76.6887 15.1135 75.8387 13.8718 75.8387 11.9993C75.8537 9.47981 75.8537 6.97527 75.8676 4.4557C75.8686 4.35449 75.8892 4.25446 75.9289 4.16133C75.9686 4.06819 76.0264 3.98377 76.0985 3.9129C76.1712 3.84203 76.2568 3.78608 76.3506 3.74826C76.4444 3.71044 76.5449 3.69148 76.6465 3.69247H77.4676C77.6717 3.69445 77.8671 3.77738 78.0104 3.92306C78.1537 4.06873 78.2331 4.26525 78.2315 4.46944V6.03466ZM52.6063 5.93347H54.3748C54.5795 5.93543 54.7748 6.01837 54.9176 6.16404C55.0609 6.30971 55.1403 6.50625 55.1387 6.71043V7.24507C55.1367 7.44914 55.0532 7.64404 54.9078 7.78708C54.7619 7.93007 54.5655 8.00966 54.3614 8.00832H52.5862V11.8944C52.5862 12.6439 52.9465 13.0749 53.6949 13.0749H54.0563C54.1573 13.0758 54.2573 13.0967 54.3506 13.1363C54.4434 13.1759 54.5279 13.2334 54.5985 13.3055C54.6691 13.3777 54.7253 13.4631 54.763 13.5568C54.8006 13.6505 54.8197 13.7508 54.8186 13.8519V14.384C54.8166 14.5882 54.7336 14.7833 54.5882 14.9264C54.4423 15.0694 54.2454 15.1489 54.0413 15.1472H53.5088C51.4188 15.1335 50.2088 14.2403 50.2088 11.8994C50.2238 9.37986 50.2238 6.87409 50.2375 4.35452C50.2399 4.15021 50.3231 3.95515 50.4691 3.81209C50.6151 3.66902 50.8118 3.58962 51.0163 3.59129H51.8377C52.0418 3.59359 52.2372 3.67685 52.38 3.82276C52.5227 3.96867 52.6021 4.16532 52.6001 4.36951L52.6063 5.93347ZM42.205 7.0277C43.055 6.23574 43.9775 5.73234 45.1725 5.73234C47.7663 5.7461 49.1063 7.85589 49.0913 10.2955L49.0775 14.384C49.0779 14.4863 49.058 14.5876 49.0189 14.6822C48.9799 14.7768 48.9225 14.8627 48.8502 14.935C48.7778 15.0073 48.6918 15.0647 48.5972 15.1036C48.5025 15.1426 48.4012 15.1625 48.2988 15.1622H47.4638C47.3614 15.1625 47.26 15.1426 47.1654 15.1036C47.0707 15.0647 46.9848 15.0073 46.9124 14.935C46.84 14.8627 46.7826 14.7768 46.7436 14.6822C46.7046 14.5876 46.6847 14.4863 46.685 14.384L46.7 10.3242C46.7 8.98512 45.98 7.9346 44.5675 7.9346C43.155 7.9346 42.2913 9.10131 42.2775 10.4254L42.2625 14.384C42.2605 14.5882 42.1775 14.7833 42.0318 14.9264C41.886 15.0694 41.6893 15.1489 41.485 15.1472H40.6638C40.4595 15.1452 40.2642 15.0623 40.1211 14.9166C39.9779 14.7709 39.8984 14.5745 39.9 14.3702C39.9138 11.9082 39.9138 9.43234 39.9288 6.97027V6.63924C39.9295 6.43527 40.011 6.23986 40.1555 6.09584C40.3001 5.95187 40.4959 5.871 40.7 5.871H41.4063C41.607 5.87698 41.7978 5.9593 41.9397 6.10115C42.0817 6.24301 42.164 6.43368 42.17 6.63424L42.205 7.0277ZM67.8789 7.12765C68.7289 6.33692 69.6501 5.83229 70.8465 5.83229C73.4403 5.84729 74.7789 7.96332 74.765 10.3967L74.7501 14.4902C74.7506 14.5924 74.731 14.6937 74.6918 14.7883C74.6532 14.8829 74.5959 14.9688 74.5233 15.0411C74.4511 15.1135 74.3655 15.1708 74.2707 15.2098C74.1764 15.2488 74.0748 15.2687 73.9728 15.2684H73.1377C73.0351 15.2687 72.9336 15.2488 72.8392 15.2098C72.7444 15.1708 72.6583 15.1135 72.5862 15.0412C72.514 14.9689 72.4563 14.883 72.4176 14.7884C72.3784 14.6938 72.3583 14.5924 72.3588 14.4902L72.3738 10.4304C72.3738 9.09131 71.6526 8.04079 70.2413 8.04079C68.83 8.04079 67.965 9.20625 67.9501 10.5316L67.93 14.4902C67.9279 14.6945 67.8444 14.8896 67.6985 15.0326C67.5527 15.1757 67.3557 15.2551 67.1511 15.2534H66.33C66.1258 15.2511 65.931 15.168 65.7882 15.0224C65.6454 14.8767 65.566 14.6804 65.5676 14.4764L65.5965 6.74414C65.5965 6.64254 65.6171 6.54198 65.6563 6.44821C65.6959 6.3545 65.7532 6.2695 65.8258 6.19811C65.898 6.12672 65.9841 6.07033 66.0779 6.03218C66.1722 5.99404 66.2733 5.97491 66.3748 5.97594H67.0815C67.2825 5.98259 67.4738 6.066 67.6155 6.20909C67.7573 6.35218 67.8392 6.54409 67.8439 6.74543L67.8789 7.12765ZM34.3613 5.65991C31.5513 5.64491 29.5638 7.67476 29.5488 10.4679C29.535 13.2897 31.4938 15.2921 34.3325 15.3058C37.1713 15.3196 39.1588 13.3335 39.1725 10.4929C39.1875 7.71852 37.1563 5.67363 34.3613 5.65991ZM57.6862 11.4335C57.8877 12.7289 59.1274 13.261 60.3377 13.276C60.9439 13.2707 61.5429 13.1384 62.0949 12.8875C62.1836 12.8514 62.2702 12.8096 62.3537 12.7626C62.6423 12.6039 62.9011 12.504 63.1614 12.7626C63.3052 12.9063 63.4351 13.0512 63.5789 13.1798C63.7145 13.3092 63.8398 13.4492 63.9537 13.5983C64.3423 14.0867 64.0686 14.2029 63.6228 14.5052C62.6712 15.1385 61.4325 15.4545 60.2939 15.4545C57.2403 15.4408 55.2228 13.5808 55.2228 10.5029C55.2377 7.59357 57.2537 5.66486 60.164 5.67863C63.1325 5.69363 64.8176 7.4362 64.8614 10.4017C64.8748 11.2074 64.9037 11.4672 64.0686 11.4672L57.6862 11.4335ZM34.3613 7.83342C35.8163 7.83342 36.7813 9.10131 36.7813 10.4979C36.7813 11.9519 35.8738 13.1211 34.3463 13.1211C32.8188 13.1211 31.9263 11.9406 31.9263 10.4866C31.9263 9.03259 32.8488 7.83342 34.3613 7.83342ZM57.7501 9.43234L62.5336 9.4461C62.3599 8.25064 61.3661 7.77594 60.2289 7.77594C59.0913 7.77594 58.1037 8.30935 57.7501 9.43234Z" fill="black"/>
</g>
<defs>
<clipPath id="clip0_1_3184">
<rect width="100" height="20.6186" fill="white"/>
</clipPath>
</defs>
</svg>

<svg xmlns="http://www.w3.org/2000/svg" width="304.762" height="64" fill="none" viewBox="0 0 100 21"><g clip-path="url(#a)"><path fill="#FFD500" d="M6.153 14.428A5.702 5.702 0 0 1 4.5 10.382 5.638 5.638 0 0 1 6.181 6.35a2.25 2.25 0 0 0 .1-3.267 2.25 2.25 0 0 0-3.27.085 10.198 10.198 0 0 0-.043 14.427 2.25 2.25 0 1 0 3.185-3.168Z"/><path fill="#5CAAFF" d="M6.183 6.35a5.726 5.726 0 0 1 8.083.03 2.25 2.25 0 1 0 3.183-3.167A10.175 10.175 0 0 0 6.344.95a10.174 10.174 0 0 0-3.316 2.203 2.249 2.249 0 1 0 3.155 3.197Z"/><path fill="#E8505D" d="M14.25 14.457a5.712 5.712 0 0 1-4.05 1.657 5.648 5.648 0 0 1-4.034-1.686 2.25 2.25 0 0 0-3.724 2.437c.128.278.312.526.54.73a10.195 10.195 0 0 0 14.437.058 2.25 2.25 0 1 0-3.17-3.196Z"/><path fill="#3E97FF" d="M6.184 6.35A2.25 2.25 0 0 1 2.73 3.5a2.25 2.25 0 1 1 3.454 2.85Z"/><path fill="#CF3D54" d="M6.136 17.596a2.25 2.25 0 0 1-3.453-2.852 2.25 2.25 0 0 1 4.114 1.27 2.248 2.248 0 0 1-.66 1.582Z"/><path fill="#000" d="M27.46 12.585c.649-.49.735-.216 1.282.331.274.274 1.023.75.533 1.152-1.022.834-1.945 1.21-3.25 1.21-2.954-.015-5.042-2.218-4.875-5.141.071-1.31.59-2.548 1.614-3.398.936-.792 2.102-1.137 3.327-1.108.6-.002 1.195.116 1.75.345.376.136.73.325 1.051.562.65.5.347.792-.158 1.295a7.73 7.73 0 0 0-.332.346c-.258.259-.432.446-.777.202-.663-.461-1.5-.706-2.291-.5-2.55.647-2.435 5.183.692 5.198a2.422 2.422 0 0 0 1.434-.494Zm70.884 2.748a.777.777 0 0 1-.779-.777l.044-10.05a.768.768 0 0 1 .226-.55.779.779 0 0 1 .551-.227h.837a.777.777 0 0 1 .777.78l-.044 10.049a.767.767 0 0 1-.227.55.775.775 0 0 1-.55.227l-.835-.002Zm-4.375-1.165c-.908.85-1.772 1.295-3.055 1.295-2.593-.015-3.832-2.16-3.832-4.564l.015-4.089a.776.776 0 0 1 .48-.718.772.772 0 0 1 .298-.057h.836a.772.772 0 0 1 .778.777l-.014 4.088c0 1.34.72 2.39 2.132 2.39 1.413 0 2.277-1.18 2.29-2.499v-1.46a.744.744 0 0 1-.013-.172l.013-2.319a.769.769 0 0 1 .48-.718.773.773 0 0 1 .298-.059h.825a.773.773 0 0 1 .777.777l-.027 7.718a.77.77 0 0 1-.777.763h-.707a.788.788 0 0 1-.763-.763l-.034-.39Zm-9.946-8.105h1.613a.775.775 0 0 1 .764.792v.532a.781.781 0 0 1-.775.777h-1.618l-.028 6.35a.777.777 0 0 1-.778.778h-.835a.777.777 0 0 1-.778-.778l.028-8.782c0-1.915 1.095-3.427 3.055-3.6.058 0 .1-.013.158-.013.115-.008.23-.008.346 0h.75a.774.774 0 0 1 .764.79v.49a.782.782 0 0 1-.778.778h-.605c-.922 0-1.311.705-1.326 1.57l.043.316Zm-5.791-.028H80a.772.772 0 0 1 .764.777v.532a.771.771 0 0 1-.778.763h-1.77l-.013 3.885c0 .75.36 1.18 1.108 1.18h.36a.773.773 0 0 1 .764.778v.54a.773.773 0 0 1-.778.763h-.677a3.124 3.124 0 0 1-.375-.015C76.69 15.114 75.84 13.872 75.84 12c.015-2.52.015-5.024.029-7.543a.77.77 0 0 1 .779-.764h.82a.772.772 0 0 1 .764.777v1.566Zm-25.626-.102h1.769a.77.77 0 0 1 .764.777v.535a.772.772 0 0 1-.778.763h-1.775v3.886c0 .75.36 1.18 1.109 1.18h.361a.771.771 0 0 1 .763.778v.532a.772.772 0 0 1-.778.763h-.532c-2.09-.014-3.3-.907-3.3-3.248.015-2.52.015-5.025.028-7.544a.772.772 0 0 1 .78-.764h.82a.771.771 0 0 1 .763.779l.006 1.563ZM42.205 7.028c.85-.792 1.773-1.296 2.968-1.296 2.593.014 3.933 2.124 3.918 4.564l-.014 4.088a.773.773 0 0 1-.48.72.777.777 0 0 1-.298.058h-.835a.777.777 0 0 1-.779-.778l.015-4.06c0-1.339-.72-2.39-2.133-2.39-1.412 0-2.276 1.167-2.29 2.491l-.014 3.959a.77.77 0 0 1-.778.763h-.821a.771.771 0 0 1-.764-.777c.014-2.462.014-4.938.029-7.4v-.33a.77.77 0 0 1 .771-.769h.706a.788.788 0 0 1 .764.763l.035.394Zm25.674.1c.85-.791 1.771-1.296 2.968-1.296 2.593.015 3.932 2.131 3.918 4.565l-.015 4.093a.768.768 0 0 1-.227.551.77.77 0 0 1-.55.227h-.835a.776.776 0 0 1-.78-.778l.016-4.06c0-1.339-.721-2.39-2.133-2.39-1.411 0-2.276 1.166-2.29 2.492l-.021 3.958a.77.77 0 0 1-.779.763h-.821a.771.771 0 0 1-.762-.777l.029-7.732a.768.768 0 0 1 .778-.768h.707a.789.789 0 0 1 .762.77l.035.382ZM34.36 5.66c-2.81-.015-4.797 2.015-4.812 4.808-.014 2.822 1.945 4.824 4.784 4.838 2.838.014 4.826-1.972 4.84-4.813.014-2.774-2.017-4.82-4.812-4.833Zm23.325 5.774c.202 1.295 1.441 1.827 2.652 1.842a4.34 4.34 0 0 0 1.757-.389c.089-.036.175-.077.259-.124.288-.16.547-.259.807 0 .144.143.274.288.418.417.136.13.26.27.375.418.388.489.115.605-.331.907-.952.633-2.19.95-3.33.95-3.053-.014-5.07-1.874-5.07-4.952.015-2.91 2.03-4.838 4.941-4.824 2.968.015 4.654 1.757 4.697 4.723.014.805.043 1.065-.792 1.065l-6.383-.034Zm-23.325-3.6c1.455 0 2.42 1.267 2.42 2.664 0 1.454-.907 2.623-2.435 2.623-1.527 0-2.42-1.18-2.42-2.634s.923-2.654 2.435-2.654Zm23.39 1.598 4.783.014c-.174-1.195-1.168-1.67-2.305-1.67-1.138 0-2.125.533-2.479 1.656Z"/></g><defs><clipPath id="a"><path fill="#fff" d="M0 0h100v20.619H0z"/></clipPath></defs></svg>
